X:1
T:Title
%%score ( 1 2 ) ( 3 4 )
L:1/8
Q:1/4=105
M:4/4
K:Bb
V:1 treble nm="Clarinet, Soprano"
V:2 treble 
V:3 bass nm="French Horn, Santiago, 76.76.76 D"
V:4 bass 
V:1
 F>B [FBd]2 [FBd]2 [FG=Be]2 | [FG=Bd]2 [EGd]4 [EGc]2 | G>B [EB]2 [EA]2 [FA]2 | [EG]2 G4 F2 | %4
w: By~Robert~Brooks~Finch,~1898 * * * *||||
 F>B [FBd]2 [FBd]2 [FG=Be]2 | [FG=Bd]2 [EGd]4 [EGc]2 | G>B BA- AG [EA]2 | [EF]>c [DFB]6 | %8
w: ||||
 (3.D.F.B [CD^FB]2 [CDFA]2 [CDFA]2 | (3.D.^F.A [B,DA]4 [B,DG]2 | z z/ ^F/ =F>G F>A d2 | %11
w: |||
 c>d [EFAc]4 [DFB]2 | (3de=e f2 A2 A2 | z2 A4 z2 | (3AB=B c2 [=EGc]2 [CFc]2 | [=EBc]2 [FAcf]6 | %16
w: |||||
 F>B [FBd]2 [FBd]2 [FG=Be]2 | [FG=Bd]2 [EGd]4 [EGc]2 | G>B [EB]2 [EA]2 [EA]2 | z2 G4 z2 | %20
w: ||||
 F>B [FBd]2 [FBd]2 [G=Bdg]2 | [G=Bdf]2 [Gcf]4 [Gce]2 | G>B BA- AG [EA]2 | [EF]>c [DFB]6- | %24
w: ||||
 [DFB]2 z2 z4 |] %25
w: |
V:2
 x8 | x8 | x8 | z2 D6 | x8 | x8 | z2 E4 z2 | x8 | x8 | x8 | x8 | x8 | x8 | (3F^FG z2 [_DEG]2 =D2 | %14
 x8 | x8 | x8 | x8 | x8 | [EG]2 D4- [DF]2 | x8 | x8 | z2 E4 z2 | x8 | x8 |] %25
V:3
 z2 [B,,,B,,]2 [F,B,D]2 [G,,,G,,]2 | [G,=B,D]2 [C,,C,]2 E,2 [G,C]2 | z2 [F,,,F,,]2 [F,A,]2 F,,2 | %3
 [F,A,]2 [B,,,B,,]2 D,2 [F,B,]2 | z2 [B,,,B,,]2 [F,B,D]2 [G,,,G,,]2 | %5
 [G,=B,D]2 [C,,C,]2 E,2 [G,C]2 | z2 F,,2 [F,A,]2 F,,2 | [F,A,]2 [B,,,B,,]2 F,2 B,2 | %8
 z2 D,,2 [D,A,]2 [D,A,]2 | z2 G,,2 D,2 G,2 | z z/ ^F,/ =F,>G, F,>A, D2 | %11
 C>D (3z [F,,F,][^F,,^F,] (3[G,,G,][_A,,_A,][=A,,=A,] [B,,B,]2 | (3DE=E F2 A,2[K:bass] A,2 | %13
 z2 A,4 z2 | (3A,B,=B, C2 [B,,_B,]2 [A,,A,]2 | [G,,G,]2 [F,,F,]6 | %16
 z2 [B,,,B,,]2 [F,B,D]2 [G,,,G,,]2 | [G,=B,D]2 [C,,C,]2 E,2 [G,C]2 | z2 [F,,,F,,]2 [F,A,]2 F,,2 | %19
 [F,A,]2 [B,,,B,,]2 D,2 [F,B,]2 | z2 [B,,,B,,]2 [F,B,D]2 [G,,,G,,]2 | %21
 [G,=B,D]2 [C,,C,]2 G,2 [CE]2 | z2 F,,2 [F,A,]2 F,,2 | [F,A,]2 [B,,,B,,]2 F,2 [B,,B,]2- | %24
 [B,,B,]2 z2 z4 |] %25
V:4
 x8 | x8 | x8 | x8 | x8 | x8 | x8 | x8 | x8 | x8 | x8 | x8 | x6[K:bass] x2 | %13
 (3F,^F,G, z2 A,,2 [D,,D,]2 | x8 | x8 | x8 | x8 | x8 | x8 | x8 | x8 | x8 | x8 | x8 |] %25

